Sources/FrostedUI/Resources/Icons.xcassets/stats32.imageset/stats-32.svg

<svg width="32" height="32" viewBox="0 0 32 32" fill="none" xmlns="http://www.w3.org/2000/svg" data-fui-icon="true">
  <path
    d="M2.75 4C3.16421 4 3.5 4.33579 3.5 4.75V23.75C3.5 25.2688 4.73122 26.5 6.25 26.5H29.25C29.6642 26.5 30 26.8358 30 27.25C30 27.6642 29.6642 28 29.25 28H6.25C3.90279 28 2 26.0972 2 23.75V4.75C2 4.33579 2.33579 4 2.75 4ZM26.25 9C26.6642 9 27 9.33579 27 9.75V14.25C27 14.6642 26.6642 15 26.25 15C25.8358 15 25.5 14.6642 25.5 14.25V11.5605L18.2803 18.7803C17.9874 19.0732 17.5126 19.0732 17.2197 18.7803L13.25 14.8105L7.28027 20.7803C6.98738 21.0732 6.51262 21.0732 6.21973 20.7803C5.92683 20.4874 5.92683 20.0126 6.21973 19.7197L12.7197 13.2197L12.7764 13.168C13.0709 12.9277 13.5057 12.9451 13.7803 13.2197L17.75 17.1895L24.4395 10.5H21.75C21.3358 10.5 21 10.1642 21 9.75C21 9.33579 21.3358 9 21.75 9H26.25Z"
    fill="currentColor"
  />
</svg>

<svg xmlns="http://www.w3.org/2000/svg" width="32" height="32" fill="none" data-fui-icon="true" viewBox="0 0 32 32"><path fill="currentColor" d="M2.75 4a.75.75 0 0 1 .75.75v19a2.75 2.75 0 0 0 2.75 2.75h23a.75.75 0 0 1 0 1.5h-23A4.25 4.25 0 0 1 2 23.75v-19A.75.75 0 0 1 2.75 4m23.5 5a.75.75 0 0 1 .75.75v4.5a.75.75 0 0 1-1.5 0v-2.69l-7.22 7.22a.75.75 0 0 1-1.06 0l-3.97-3.97-5.97 5.97a.75.75 0 1 1-1.06-1.06l6.5-6.5.056-.052a.75.75 0 0 1 1.004.052l3.97 3.97 6.69-6.69h-2.69a.75.75 0 0 1 0-1.5z"/></svg>
